src/actions/16/connector-avoid.svg

<svg width="16" height="16" version="1.1" xmlns="http://www.w3.org/2000/svg">
 <path d="m7.0742 3.5039a0.5 0.5 0 0 0-0.074219 0.0039063v0.49219h-0.49219a0.5 0.5 0 0 0 0.23438 0.42969l4.7578 2.8535v4.7168h1v-5.2832l-5.2422-3.1465a0.5 0.5 0 0 0-0.18359-0.066406z" color="#000000" fill="#363636" fill-opacity=".99815" opacity=".5" stroke-linecap="round" style="-inkscape-stroke:none"/>
 <path d="m3 7c-0.554 0-1 0.446-1 1v1c0 0.554 0.446 1 1 1h4c0.554 0 1-0.446 1-1v-1c0-0.554-0.446-1-1-1h-4zm0 1h4v1h-4v-1z" fill="#363636" stroke-linecap="round" stroke-linejoin="round" stroke-width=".46291"/>
 <path d="m4 2c-0.554 0-1 0.446-1 1v1c0 0.554 0.446 1 1 1h3c0.554 0 1-0.446 1-1v-1c0-0.554-0.446-1-1-1h-3zm0 1h3v1h-3v-1z" fill="#363636" stroke-linecap="round" stroke-linejoin="round" stroke-width=".5"/>
 <path d="m10 11c-0.554 0-1 0.446-1 1v1c0 0.554 0.446 1 1 1h3c0.554 0 1-0.446 1-1v-1c0-0.554-0.446-1-1-1zm0 1h3v1h-3z" fill="#363636" stroke-linecap="round" stroke-linejoin="round" stroke-width=".5"/>
</svg>

<svg xmlns="http://www.w3.org/2000/svg" width="16" height="16">
    <path fill="#050505" fill-opacity=".7" d="M7.074 3.504A.5.5 0 0 0 7 3.508V4h-.492a.5.5 0 0 0 .234.43L11.5 7.283V12h1V6.717L7.258 3.57a.5.5 0 0 0-.184-.066z" color="#000" opacity=".5" style="-inkscape-stroke:none"/>
    <path fill="#050505" fill-opacity=".7" d="M3 7c-.554 0-1 .446-1 1v1c0 .554.446 1 1 1h4c.554 0 1-.446 1-1V8c0-.554-.446-1-1-1H3zm0 1h4v1H3V8zM4 2c-.554 0-1 .446-1 1v1c0 .554.446 1 1 1h3c.554 0 1-.446 1-1V3c0-.554-.446-1-1-1H4zm0 1h3v1H4V3zM10 11c-.554 0-1 .446-1 1v1c0 .554.446 1 1 1h3c.554 0 1-.446 1-1v-1c0-.554-.446-1-1-1zm0 1h3v1h-3z"/>
</svg>
